X:393
T:
R:polska
S:Ur en gammal notbok från Hogrän.
O:Gotland, Hogrän
M:3/4
L:1/16
K:C
dBGB dBGB dBGB|defg fgag a2g2|ecBc ecBc ecBc|BcBA G2Bd g4|
g2ge a2af e2g2|gfef d4 c4::ecBc ecBc eg^fg|dedc B2GB d2g2|
ecBc ecBc eg^fg|d2dB G2Bd g4|g2ge a2af e2g2|gfef d4 c4:|

